src/assets/compendia/icons/tokens-core/faction-ferengi-rank-6-token.svg

<svg xmlns="http://www.w3.org/2000/svg" xml:space="preserve" style="fill-rule:evenodd;clip-rule:evenodd;stroke-linecap:round;stroke-miterlimit:1.5" viewBox="0 0 256 256"><path d="M0 0h256v256H0z" style="fill:none"/><g><circle cx="128" cy="128" r="128"/><path d="M128 0c70.645 0 128 57.355 128 128s-57.355 128-128 128S0 198.645 0 128 57.355 0 128 0m0 8C61.77 8 8 61.77 8 128s53.77 120 120 120 120-53.77 120-120S194.23 8 128 8" style="fill:#78db57"/><path d="m1735.68 35.991-1.81 3.084-.73.012q-2.31.036-2.7-.012c-.87-.096-1.57-.38-2.11-.852-.44-.36-.75-.82-.95-1.38-.15-.392-.24-.776-.24-1.152h3.81c.01.304.1.62.25.948.2.392.45.708.77.948.39.28.83.42 1.34.42l2.01-2.016zm-.91-.3-1.9 1.932c-.49-.12-.86-.364-1.14-.732-.2-.264-.34-.568-.39-.912h.28c.08.24.21.436.38.588.13.112.33.216.59.312l.72-1.188zm.91-.468h-.36l-2.01-2.016c-.51 0-.95.14-1.34.42-.32.24-.57.556-.77.948-.15.328-.24.644-.25.948h-3.81c0-.376.09-.76.24-1.152.2-.56.51-1.02.95-1.38.54-.472 1.24-.756 2.11-.852q.39-.048 2.7-.012l.73.012zm-.91.3h-1.46l-.72-1.188c-.26.096-.46.2-.59.312-.17.152-.3.348-.38.588h-.28c.05-.344.19-.652.39-.924.28-.36.65-.604 1.14-.732zm-2.4.636a.5.5 0 0 1-.38-.162.52.52 0 0 1-.16-.39c0-.152.05-.282.16-.39a.5.5 0 0 1 .38-.162q.225 0 .39.162c.11.108.16.238.16.39s-.05.282-.16.39a.54.54 0 0 1-.39.162" style="fill:#78db57;fill-rule:nonzero" transform="translate(-30268.9 -497.13)scale(17.5562)"/><circle cx="1928" cy="1439" r="9" style="fill:#78db57;stroke:#78db57;stroke-width:8px" transform="rotate(14 5914.613 -6601.92)"/><circle cx="1928" cy="1439" r="9" style="fill:#78db57;stroke:#78db57;stroke-width:8px" transform="translate(-1800 -1200)"/><circle cx="1928" cy="1439" r="9" style="fill:#78db57;stroke:#78db57;stroke-width:8px" transform="rotate(-14 -3858.605 8057.9)"/></g></svg>

<?xml version="1.0" encoding="UTF-8" standalone="no"?>
<!DOCTYPE svg PUBLIC "-//W3C//DTD SVG 1.1//EN" "http://www.w3.org/Graphics/SVG/1.1/DTD/svg11.dtd">
<svg width="100%" height="100%" viewBox="0 0 256 256" version="1.1" xmlns="http://www.w3.org/2000/svg" xmlns:xlink="http://www.w3.org/1999/xlink" xml:space="preserve" xmlns:serif="http://www.serif.com/" style="fill-rule:evenodd;clip-rule:evenodd;stroke-linecap:round;stroke-miterlimit:1.5;">
    <g transform="matrix(1,0,0,1,-3300,-2700)">
        <g transform="matrix(1,0,0,1,3300,2700)">
            <rect id="faction-ferengi-rank-6-token" x="0" y="0" width="256" height="256" style="fill:none;"/>
            <g id="faction-ferengi-rank-6-token1" serif:id="faction-ferengi-rank-6-token">
                <circle cx="128" cy="128" r="128"/>
                <path d="M128,0C198.645,0 256,57.355 256,128C256,198.645 198.645,256 128,256C57.355,256 0,198.645 0,128C0,57.355 57.355,0 128,0ZM128,8C61.77,8 8,61.77 8,128C8,194.23 61.77,248 128,248C194.23,248 248,194.23 248,128C248,61.77 194.23,8 128,8Z" style="fill:rgb(120,219,87);"/>
                <g transform="matrix(17.5562,0,0,17.5562,-30268.9,-497.13)">
                    <g id="Ferengi">
                        <path id="Ferengi1" serif:id="Ferengi" d="M1735.68,35.991L1733.87,39.075L1733.14,39.087C1731.6,39.111 1730.7,39.107 1730.44,39.075C1729.57,38.979 1728.87,38.695 1728.33,38.223C1727.89,37.863 1727.58,37.403 1727.38,36.843C1727.23,36.451 1727.14,36.067 1727.14,35.691L1730.95,35.691C1730.96,35.995 1731.05,36.311 1731.2,36.639C1731.4,37.031 1731.65,37.347 1731.97,37.587C1732.36,37.867 1732.8,38.007 1733.31,38.007L1735.32,35.991L1735.68,35.991ZM1734.77,35.691L1732.87,37.623C1732.38,37.503 1732.01,37.259 1731.73,36.891C1731.53,36.627 1731.39,36.323 1731.34,35.979L1731.62,35.979C1731.7,36.219 1731.83,36.415 1732,36.567C1732.13,36.679 1732.33,36.783 1732.59,36.879L1733.31,35.691L1734.77,35.691ZM1735.68,35.223L1735.32,35.223L1733.31,33.207C1732.8,33.207 1732.36,33.347 1731.97,33.627C1731.65,33.867 1731.4,34.183 1731.2,34.575C1731.05,34.903 1730.96,35.219 1730.95,35.523L1727.14,35.523C1727.14,35.147 1727.23,34.763 1727.38,34.371C1727.58,33.811 1727.89,33.351 1728.33,32.991C1728.87,32.519 1729.57,32.235 1730.44,32.139C1730.7,32.107 1731.6,32.103 1733.14,32.127L1733.87,32.139L1735.68,35.223ZM1734.77,35.523L1733.31,35.523L1732.59,34.335C1732.33,34.431 1732.13,34.535 1732,34.647C1731.83,34.799 1731.7,34.995 1731.62,35.235L1731.34,35.235C1731.39,34.891 1731.53,34.583 1731.73,34.311C1732.01,33.951 1732.38,33.707 1732.87,33.579L1734.77,35.523ZM1732.37,36.159C1732.22,36.159 1732.09,36.105 1731.99,35.997C1731.88,35.889 1731.83,35.759 1731.83,35.607C1731.83,35.455 1731.88,35.325 1731.99,35.217C1732.09,35.109 1732.22,35.055 1732.37,35.055C1732.52,35.055 1732.65,35.109 1732.76,35.217C1732.87,35.325 1732.92,35.455 1732.92,35.607C1732.92,35.759 1732.87,35.889 1732.76,35.997C1732.65,36.105 1732.52,36.159 1732.37,36.159Z" style="fill:rgb(120,219,87);fill-rule:nonzero;"/>
                    </g>
                </g>
                <g transform="matrix(0.970296,0.241922,-0.241922,0.970296,-1421.46,-1626.98)">
                    <circle cx="1928" cy="1439" r="9" style="fill:rgb(120,219,87);stroke:rgb(120,219,87);stroke-width:8px;"/>
                </g>
                <g transform="matrix(1,0,0,1,-1800,-1200)">
                    <circle cx="1928" cy="1439" r="9" style="fill:rgb(120,219,87);stroke:rgb(120,219,87);stroke-width:8px;"/>
                </g>
                <g transform="matrix(0.970296,-0.241922,0.241922,0.970296,-2064,-694.127)">
                    <circle cx="1928" cy="1439" r="9" style="fill:rgb(120,219,87);stroke:rgb(120,219,87);stroke-width:8px;"/>
                </g>
            </g>
        </g>
    </g>
</svg>
